X: 12625
T: Farewell To Whisky
R: polka
M: 2/4
K: Gmajor
D2 G2|BAGA|B2 E2|E4|D2 G2|GABc|d2 B2|B2 d2|
efge|d2 B2|cBAG|A2 B2|D2 G2|BAGA|B2 G2|G4||

